newicons/monstermusic.svg

<?xml version="1.0" encoding="UTF-8"?><svg id="b" xmlns="http://www.w3.org/2000/svg" viewBox="0 0 48 48"><defs><style>.d{fill:none;stroke:#fff;stroke-linecap:round;stroke-linejoin:round;}</style></defs><path id="c" class="d" d="M28.5705,18.926c-.1668.7027-.9919,1.2721-1.843,1.272-.851,0-1.4061-.5694-1.24-1.272.1668-.7027.9919-1.2721,1.843-1.272.851,0,1.4061.5694,1.24,1.272ZM19.4305,18.926c.1668.7027.9919,1.2721,1.843,1.272.851,0,1.4061-.5694,1.24-1.272-.1668-.7027-.9919-1.2721-1.843-1.272-.851,0-1.4061.5694-1.24,1.272ZM23.0965,23.15h1.808M17.0055,18.647c-.1295-.5472-.1946-1.1077-.194-1.67-.0022-3.956,3.2029-7.1648,7.159-7.167.01,0,.02,0,.03,0h0c3.956-.0149,7.175,3.18,7.19,7.1359,0,.0107,0,.0214,0,.0321,0,.575-.068,1.134-.195,1.67-.13.545-2.606,7.501-6.995,7.501s-6.865-6.956-6.995-7.501v-.001ZM12.0925,42.474v-23.774l11.908,23.8,11.908-23.762v23.762M6.6205,42.484v-17.272M6.7595,19.129c1.071-7.709,8.219-13.629,16.933-13.629h.616c8.714,0,15.863,5.921,16.932,13.629M41.3795,25.212v17.272"/></svg>

<svg xmlns="http://www.w3.org/2000/svg" xml:space="preserve" id="svg1" version="1.1" viewBox="0 0 48 48"><defs id="defs1"><style id="style1">.a{fill:none;stroke:#fff;stroke-linecap:round;stroke-linejoin:round}</style></defs><path id="path6" d="M28.57 18.926a1.213 1.617 68.925 0 1-1.843 1.272 1.213 1.617 68.925 0 1-1.24-1.272 1.213 1.617 68.925 0 1 1.843-1.272 1.213 1.617 68.925 0 1 1.24 1.272zm-9.14 0a1.617 1.213 21.075 0 0 1.843 1.272 1.617 1.213 21.075 0 0 1.24-1.272 1.617 1.213 21.075 0 0-1.843-1.272 1.617 1.213 21.075 0 0-1.24 1.272zm3.666 4.224h1.808m-7.899-4.503a7.217 7.217 0 0 1-.194-1.67A7.163 7.163 0 0 1 24 9.81v0a7.163 7.163 0 0 1 7.19 7.168c0 .575-.068 1.134-.195 1.67-.13.545-2.606 7.501-6.995 7.501-4.39 0-6.865-6.956-6.995-7.501zm-4.913 23.827V18.7L24 42.5l11.908-23.762V42.5M6.62 42.484V25.212m.139-6.083C7.83 11.42 14.978 5.5 23.692 5.5v0h.616c8.714 0 15.863 5.921 16.932 13.629m.139 6.083v17.272" style="fill:none;stroke:#fff;stroke-width:1;stroke-linecap:round;stroke-linejoin:round;stroke-opacity:1"/></svg>
